X: 1
T: the Lark in the Morning
R: jig
Z: 1997 by John Chambers <jc:trillian.mit.edu>
M: 6/8
L: 1/8
K: Em
B/A/ \
| "Em"GEE EGA | BGB BdB | "D"AFD DFA | AFA ABc \
| "Em"BGE EGA | BGB Bee | "Bm"dBB BAB | "Em"GEE E2 :|
|: e \
| "Em"eBe  efg | "D"fdd d2e | dAd ded | BAA A2e \
| "Em"eBe  efg | "D"agf gfe | "Bm"dBB BAB | "Em"GEE E2 :|
